www/assets/icons/emergency_recording.svg

<svg xmlns="http://www.w3.org/2000/svg" width="24" height="24" viewBox="0 0 24 24" fill='currentColor'><path d="M18 10.48V6c0-1.1-.9-2-2-2H4c-1.1 0-2 .9-2 2v12c0 1.1.9 2 2 2h12c1.1 0 2-.9 2-2v-4.48l4 3.98v-11zM12 12l3 1.73-1 1.73-3-1.73V17H9v-3.27l-3 1.73-1-1.73L8 12l-3-1.73 1-1.73 3 1.73V7h2v3.27l3-1.73 1 1.73z"/></svg>

<svg width="24" height="24" viewBox="0 0 24 24" xmlns="http://www.w3.org/2000/svg" fill='currentColor'><path d="M18 10.48V6C18 4.9 17.1 4 16 4H4C2.9 4 2 4.9 2 6V18C2 19.1 2.9 20 4 20H16C17.1 20 18 19.1 18 18V13.52L22 17.5V6.5L18 10.48ZM12 12L15 13.73L14 15.46L11 13.73V17H9V13.73L6 15.46L5 13.73L8 12L5 10.27L6 8.54L9 10.27V7H11V10.27L14 8.54L15 10.27L12 12Z"/></svg>
